Obsidian-SemiLight/actions/16s/media-track-queue-amarok.svg

<svg viewBox="0 0 16 16" xmlns="http://www.w3.org/2000/svg"><path d="m3 2v1h1v2h-1v1h3v-1h-1v-2h1v-1zm5 0v1h6v-1zm0 2v1h4v-1zm-6 4v1h1v2h-1v1h5v-1h-1v-2h1v-1zm2 1h1v2h-1zm8 4v1h2v-1z" fill="#4d4d4d"/><path d="m14 11h-5l2.5-3z" fill="#3daee9"/></svg>

<svg xmlns="http://www.w3.org/2000/svg" viewBox="0 0 16 16">
  <defs id="defs3051">
    <style type="text/css" id="current-color-scheme">
      .ColorScheme-Text {
        color:#4d4d4d;
      }
      .ColorScheme-Highlight {
        color:#3daee9;
      }
      </style>
  </defs>
  <path 
        style="fill:currentColor;fill-opacity:1;stroke:none"
        d="M 3 2 L 3 3 L 4 3 L 4 5 L 3 5 L 3 6 L 6 6 L 6 5 L 5 5 L 5 3 L 6 3 L 6 2 L 3 2 z M 8 2 L 8 3 L 14 3 L 14 2 L 8 2 z M 8 4 L 8 5 L 12 5 L 12 4 L 8 4 z M 2 8 L 2 9 L 3 9 L 3 11 L 2 11 L 2 12 L 7 12 L 7 11 L 6 11 L 6 9 L 7 9 L 7 8 L 2 8 z M 4 9 L 5 9 L 5 11 L 4 11 L 4 9 z M 12 13 L 12 14 L 14 14 L 14 13 L 12 13 z "
        class="ColorScheme-Text"
        />
  <path
        style="fill:currentColor;fill-opacity:1;stroke:none"
        d="M 14,11 9,11 11.5,8 Z"
        class="ColorScheme-Highlight"
      />
</svg>
